!!!COM: Palestrina, Giovanni Perluigi da
!!!OPR: Veni Sancte Spiritus
!!!OTL: Agnus II
**kern	**kern	**kern	**kern	**kern	**kern
*Ibass	*Itenor	*Itenor	*Icalto	*Icalto	*Icant
!Bassus	!Tenor 2	!Tenor 1	!Altus 2	!Altus 1	!Cantus
*clefF4	*clefGv2	*clefGv2	*clefG2	*clefG2	*clefG2
*k[b-]	*k[b-]	*k[b-]	*k[b-]	*k[b-]	*k[b-]
*G:dor	*G:dor	*G:dor	*G:dor	*G:dor	*G:dor
*M4/2	*M4/2	*M4/2	*M4/2	*M4/2	*M4/2
=1	=1	=1	=1	=1	=1
0r	1.a	0r	0r	1r	0r
.	.	.	.	[1a	.
.	2a	.	.	.	.
=2	=2	=2	=2	=2	=2
0r	2.d	0r	0r	2a]	0r
.	.	.	.	2a	.
.	4e	.	.	.	.
.	4f	.	.	2.d	.
.	4g	.	.	.	.
.	[2a	.	.	.	.
.	.	.	.	4e	.
=3	=3	=3	=3	=3	=3
1.d	4a]	0r	0r	4f	0r
.	4g	.	.	4g	.
.	4f	.	.	1a	.
.	4e	.	.	.	.
.	4f	.	.	.	.
.	4g	.	.	.	.
2d	[2a	.	.	2f	.
=4	=4	=4	=4	=4	=4
2.G	4a]	0r	0r	1b-	1.dd
.	4g	.	.	.	.
.	1g	.	.	.	.
4A	.	.	.	.	.
4B-	.	.	.	2b-	.
4c	.	.	.	.	.
2d	2f	.	.	[2a	2dd
=5	=5	=5	=5	=5	=5
2c	2e-	0r	0r	4a]	1g
.	.	.	.	4g	.
2B-	2d	.	.	1g	.
[1A	[1c	.	.	.	1a
.	.	.	.	4f	.
.	.	.	.	4e	.
=6	=6	=6	=6	=6	=6
1A]	1c]	1r	0r	1f#	1.cc
[1G	2r	[1d	.	[1g	.
.	2d	.	.	.	4b-
.	.	.	.	.	4a
=7	=7	=7	=7	=7	=7
1G]	2G	2d]	1.g	2g]	0b-
.	2.B-	2d	.	4f	.
.	.	.	.	4e-	.
2r	.	1G	.	1d	.
.	4c	.	.	.	.
2G	4d	.	2g	.	.
.	4e	.	.	.	.
=8	=8	=8	=8	=8	=8
2F	2f	2A	1c	0r	1a
2A	2e	1c	.	.	.
1G	1g	.	1d	.	2r
.	.	2B-	.	.	2g
=9	=9	=9	=9	=9	=9
2.F	1c	2A	1.f	0r	2.a
.	.	1a	.	.	.
4G	.	.	.	.	4b-
2A	1r	.	.	.	2cc
2B-	.	2g	4e	.	[2dd
.	.	.	4d	.	.
=10	=10	=10	=10	=10	=10
0A	1r	1a	0e	2r	2dd]
.	.	.	.	1a	4cc#
.	.	.	.	.	4b
.	2r	2e	.	.	1cc#
.	[2A	[2a	.	2e	.
=11	=11	=11	=11	=11	=11
2.D	2A]	4a]	1d	2.f	1dd
.	.	4g	.	.	.
.	2B-	1f	.	.	.
4E	.	.	.	4g	.
2F	2A	.	2r	4a	1r
.	.	.	.	4b-	.
2C	2G	2e	2c	[2cc	.
=12	=12	=12	=12	=12	=12
1G	2A	2d	2.d	2cc]	0r
.	4B-	2G	.	2b-	.
.	4c	.	4e	.	.
2F	2d	2A	2f	2a	.
2E-	2G	2c	[2g	2g	.
=13	=13	=13	=13	=13	=13
0D	2r	0d	2g]	2b-	1r
.	1A	.	4f#	4a	.
.	.	.	4e	4g	.
.	.	.	1f#	1a	1dd
.	2d	.	.	.	.
=14	=14	=14	=14	=14	=14
1G	1B-	2r	1g	1b-	2ee-
.	.	2d	.	.	1dd
1r	2c	1e-	1r	1g	.
.	2g	.	.	.	2cc
=15	=15	=15	=15	=15	=15
2r	2f	1d	0r	2a	2dd
2G	4g	.	.	1g	2b-
.	4f	.	.	.	.
1A	4e	1c	.	.	1cc
.	4d	.	.	.	.
.	2c	.	.	2f#	.
=16	=16	=16	=16	=16	=16
1G	0r	1d	1r	2g	1b-
.	.	.	.	2d	.
1C	.	2.c	1g	1e-	1r
.	.	4B-	.	.	.
=17	=17	=17	=17	=17	=17
2F	2r	2A	2a	1d	0r
2G	2d	2B-	1g	.	.
2C	2e-	1A	.	2r	.
2D	[2d	.	2f#	2a	.
=18	=18	=18	=18	=18	=18
2G	2d]	0r	2g	2b-	1r
2A	2c#	.	2e	1a	.
2D	1d	.	1f	.	1a
[2d	.	.	.	2f	.
=19	=19	=19	=19	=19	=19
2d]	2G	2r	1e	2g	2b-
2c	2A	2e	.	2e	1a
1B-	2.d	2f	1r	2d	.
.	.	[2d	.	2d	2g
.	4e	.	.	.	.
=20	=20	=20	=20	=20	=20
1A	2f	2d]	0r	2r	[0a
.	2e	2c#	.	2e	.
1D	1d	4d	.	2f	.
.	.	4e	.	.	.
.	.	4f	.	[2d	.
.	.	4d	.	.	.
=21	=21	=21	=21	=21	=21
2r	1A	2e	1r	2d]	1a]
2A	.	2.f	.	2c#	.
2.B-	1r	.	1d	2d	1f
.	.	4e	.	.	.
.	.	4d	.	2B-	.
4A	.	4c	.	.	.
=22	=22	=22	=22	=22	=22
2.G	1r	2B-	2e-	1.b-	0g
.	.	2B-	1d	.	.
4F	.	.	.	.	.
1E-	2r	1G	.	.	.
.	2G	.	2c	2g	.
=23	=23	=23	=23	=23	=23
1D	2B-	1r	[0d	2r	1f
.	2A	.	.	2a	.
2r	2G	2r	.	2b-	1r
2D	2F#	2A	.	2a	.
=24	=24	=24	=24	=24	=24
2G	2G	2B-	1d]	2g	0r
2D	1d	2A	.	2f#	.
1G	.	2G	1B-	2g	.
.	2e	2g	.	[2b-	.
=25	=25	=25	=25	=25	=25
0F	0f	2c	0c	2b-]	0r
.	.	2.f	.	4a	.
.	.	.	.	4g	.
.	.	.	.	1a	.
.	.	8e-	.	.	.
.	.	8d	.	.	.
.	.	2c	.	.	.
=26	=26	=26	=26	=26	=26
1BB-	2r	0d	1B-	2b-	1r
.	2d	.	.	2f	.
1D	1f	.	1r	2r	1a
.	.	.	.	2d	.
=27	=27	=27	=27	=27	=27
2C	1g	1r	0r	2e-	1cc
2E-	.	.	.	1g	.
1D	1a	1A	.	.	1dd
.	.	.	.	2f	.
=28	=28	=28	=28	=28	=28
2C	1r	2c	0r	2e-	2g
2.G	.	2d	.	2d	2.b-
.	[1d	4G	.	2r	.
4F#	.	4A	.	.	4a
2G	.	2B-	.	2g	[2g
=29	=29	=29	=29	=29	=29
1D	2d]	1A	1r	1a	2g]
.	2d	.	.	.	2f#
1r	2B-	4G	1d	1b-	1g
.	.	4A	.	.	.
.	2G	4B-	.	.	.
.	.	4c	.	.	.
=30	=30	=30	=30	=30	=30
1D	1A	0d	1f	1a	0r
1G	2G	.	1g	2.b-	.
.	2d	.	.	.	.
.	.	.	.	4g	.
=31	=31	=31	=31	=31	=31
2F	2f	0r	2c	4a	0r
.	.	.	.	4b-	.
2C	2g	.	2.e-	2cc	.
1C	4c	.	.	1g	.
.	4d	.	4d	.	.
.	2e-	.	[2c	.	.
=32	=32	=32	=32	=32	=32
1G	1d	2r	2c]	1g	0r
.	.	1g	2B	.	.
2r	1c	.	1c	2e	.
2A	.	2f	.	2a	.
=33	=33	=33	=33	=33	=33
2c	0r	2e	0r	2g	2r
2d	.	2d	.	2.f	2a
2A	.	1c	.	.	1cc
.	.	.	.	4e	.
[2c	.	.	.	2e	.
=34	=34	=34	=34	=34	=34
4c]	2r	2G	0r	1d	1dd
8B-	.	.	.	.	.
8A	.	.	.	.	.
2B	2d	2.g	.	.	.
1c	2e	.	.	2r	2g
.	.	4g	.	.	.
.	[2g	2c	.	2e	4g
.	.	.	.	.	4a
=35	=35	=35	=35	=35	=35
2G	2g]	1d	0r	1g	4b-
.	.	.	.	.	4cc
2B-	2d	.	.	.	1dd
1A	1e	2r	.	1a	.
.	.	[2A	.	.	2cc#
=36	=36	=36	=36	=36	=36
0D	1d	4A]	2r	2.f	[0dd
.	.	8G	.	.	.
.	.	8A	.	.	.
.	.	2B-	2d	.	.
.	.	.	.	4g	.
.	2r	1A	1f	1a	.
.	2d	.	.	.	.
=37	=37	=37	=37	=37	=37
1G	4B-	2r	1g	1b-	1dd]
.	4c	.	.	.	.
.	4d	2G	.	.	.
.	4e	.	.	.	.
1F	2f	2A	2c	1a	2r
.	2F	[2c	4c	.	2a
.	.	.	4d	.	.
=38	=38	=38	=38	=38	=38
2C	1G	2c]	4e-	1g	1cc
.	.	.	4f	.	.
2E-	.	2G	1g	.	.
1D	1d	1A	.	2r	1dd
.	.	.	2f#	2d	.
=39	=39	=39	=39	=39	=39
1.G	1.d	[0G	[0g	2.B-	2dd
.	.	.	.	.	4g
.	.	.	.	4c	4a
.	.	.	.	4d	4b-
.	.	.	.	4e-	4cc
2G	2B-	.	.	[2d	4dd
.	.	.	.	.	8cc
.	.	.	.	.	8dd
=40	=40	=40	=40	=40	=40
1C	1c	1G_	1g_	2d]	1ee-
.	.	.	.	1c	.
1G	2d	1G_	1g_	.	1dd
.	2d	.	.	2B-	.
=41	=41	=41	=41	=41	=41
0C	2.e-	0G]	0g]	2.c	0cc
.	4d	.	.	4d	.
.	1c	.	.	1e-	.
=42	=42	=42	=42	=42	=42
[0G	[0B	[0G	[0g	[0d	[0dd
=43	=43	=43	=43	=43	=43
0G]	0B]	0G]	0g]	0d]	0dd]
==	==	==	==	==	==
*-	*-	*-	*-	*-	*-
!!!CDT: 1525/^1526/-1594/2/2
!!!OCY: Italia
!!!AGN: Mass (Parody)
!!!AST: renaissance, vocal
!!!ASW: Motet (unidentified (Pal?))
!!!PWK: Masses, Book 4
!!!RNB: Cadence finals: D
!!!YOR: Le Opere Complete, v. 10, p. 115
!!!YOO: Rome, Italy: Fratelli Scalera
!!!END: 1992//
!!!EED: John Miller
!!!YEC: Copyright 2000, John Miller
!!!YEN: United States of America
!!!YEM: Rights to all derivative electronic formats reserved.
!!!YEM: Refer to licensing agreement for further details.
!!!YEM: This file must be accompanied by the licensing agreement.
!!!YEM: A copy of the licensing agreement may be found at http://www.music-cog.ohio-state.edu/HumdrumDatabases/Palestrina/license.txt
!!!EMD: converted to Humdrum by Bret Aarden
